src/images/icons/fire1.svg

<svg width="406" height="472" viewBox="0 0 406 472" fill="none" xmlns="http://www.w3.org/2000/svg">
<path d="M423.788 322.005C418.29 309.679 410.707 297.542 399.617 283.522C371.653 248.332 363.122 169.86 363.027 169.108C362.648 165.344 359.994 162.239 356.486 161.11C352.884 159.981 348.998 161.016 346.438 163.838C313.072 201.193 327.101 258.87 334.684 281.923C336.77 288.227 339.045 295.66 340.655 303.187C352.978 364.064 329.185 391.633 323.593 397.184C318.19 398.689 314.493 397.937 311.08 394.267C299.326 381.377 295.44 339.13 300.937 284.087C302.076 272.89 301.791 262.822 300.179 253.413C288.584 185.759 246.07 142.362 235.247 127.143C205.482 83.1085 202.449 9.81166 202.354 9.15302C202.259 5.67165 200.269 2.56665 197.141 1.0612C194.107 -0.444256 190.41 -0.256073 187.567 1.71984C137.896 35.4985 142.161 116.887 149.081 162.333C150.693 172.871 153.821 183.598 159.224 197.147C178.467 245.604 155.432 308.174 155.243 308.739C155.053 309.303 154.864 309.773 154.769 310.338C151.83 325.769 146.901 334.99 141.403 334.99C140.834 334.99 140.266 334.896 139.602 334.708C132.872 333.296 129.365 326.145 129.27 319.935C128.891 239.676 48.4125 212.672 47.5594 212.389C43.9573 211.26 39.976 212.295 37.5114 215.212C34.9521 218.129 34.4781 222.175 36.1844 225.562C37.1323 227.538 40.1656 236.194 38.0802 266.774C36.2791 294.249 31.2552 321.441 23.1979 347.504C4.04998 409.98 7.08331 469.164 7.2729 471.986C21.9969 632.23 252.252 660.308 388.904 570.029C403.881 560.149 416.109 548.859 425.115 536.439C475.545 466.811 445.875 372.25 423.788 322.005ZM73.5332 475.091C73.8176 480.266 69.8363 484.689 64.6228 484.971H64.0541C59.0301 484.971 54.8593 481.113 54.5749 476.126C53.7218 462.389 53.9113 447.993 54.954 432.374C55.3332 427.199 59.8832 423.341 65.0968 423.623C70.3103 423.999 74.2916 428.515 73.9124 433.69C72.8687 448.558 72.6801 462.107 73.5332 475.091ZM78.1771 391.727C77.6083 396.525 73.5323 400.007 68.7927 400.007C68.4135 400.007 68.0343 400.007 67.5604 399.913C62.4416 399.254 58.7448 394.643 59.3135 389.469L63.8635 353.149C64.5271 348.068 69.1718 344.399 74.4802 344.964C79.6937 345.622 83.3906 350.327 82.7271 355.502L78.1771 391.727Z" fill="#3D3D3D"/>
<path d="M359.658 128.726C354.488 127.931 350.943 123.135 351.739 118.003C352.331 114.18 355.756 94.6093 365.05 84.7683C368.628 80.9737 374.618 80.7761 378.45 84.3412C382.268 87.8922 382.463 93.8472 378.88 97.6419C374.947 101.809 371.595 113.735 370.475 120.871C369.675 125.948 364.904 129.511 359.658 128.726Z" fill="#3D3D3D"/>
<path d="M14.0848 175.594C12.2705 168.597 7.7622 157.056 3.43496 153.289C-0.503633 149.861 -0.89702 143.916 2.55529 140.012C5.99907 136.098 11.9833 135.698 15.9313 139.139C26.1461 148.028 31.4829 167.173 32.4507 170.917C33.7465 175.948 30.6923 181.065 25.6285 182.361C20.4529 183.653 15.3749 180.541 14.0848 175.594Z" fill="#3D3D3D"/>
</svg>

<svg width="406" height="472" fill="none" xmlns="http://www.w3.org/2000/svg"><path d="M423.788 322.005c-5.498-12.326-13.081-24.463-24.171-38.483-27.964-35.19-36.495-113.662-36.59-114.414-.379-3.764-3.033-6.869-6.541-7.998a9.61 9.61 0 0 0-10.048 2.728c-33.366 37.355-19.337 95.032-11.754 118.085 2.086 6.304 4.361 13.737 5.971 21.264 12.323 60.877-11.47 88.446-17.062 93.997-5.403 1.505-9.1.753-12.513-2.917-11.754-12.89-15.64-55.137-10.143-110.18 1.139-11.197.854-21.265-.758-30.674-11.595-67.654-54.109-111.051-64.932-126.27-29.765-44.034-32.798-117.331-32.893-117.99-.095-3.481-2.085-6.586-5.213-8.092-3.034-1.505-6.731-1.317-9.574.659-49.671 33.779-45.406 115.167-38.486 160.613 1.612 10.538 4.74 21.265 10.143 34.814 19.243 48.457-3.792 111.027-3.981 111.592-.19.564-.379 1.034-.474 1.599-2.939 15.431-7.868 24.652-13.366 24.652-.569 0-1.137-.094-1.801-.282-6.73-1.412-10.237-8.563-10.332-14.773-.379-80.259-80.858-107.263-81.71-107.546-3.603-1.129-7.584-.094-10.049 2.823-2.559 2.917-3.033 6.963-1.327 10.35.948 1.976 3.982 10.632 1.896 41.212-1.8 27.475-6.825 54.667-14.882 80.73C4.05 409.98 7.083 469.164 7.273 471.986c14.724 160.244 244.979 188.322 381.631 98.043 14.977-9.88 27.205-21.17 36.211-33.59 50.43-69.628 20.76-164.189-1.327-214.434ZM73.533 475.091c.285 5.175-3.697 9.598-8.91 9.88h-.569c-5.024 0-9.195-3.858-9.48-8.845-.852-13.737-.663-28.133.38-43.752.38-5.175 4.93-9.033 10.143-8.751 5.213.376 9.195 4.892 8.815 10.067-1.043 14.868-1.232 28.417-.379 41.401Zm4.644-83.364c-.569 4.798-4.645 8.28-9.384 8.28-.38 0-.759 0-1.233-.094-5.118-.659-8.815-5.27-8.247-10.444l4.55-36.32c.664-5.081 5.309-8.75 10.617-8.185 5.214.658 8.91 5.363 8.247 10.538l-4.55 36.225ZM359.658 128.726c-5.17-.795-8.715-5.591-7.919-10.723.592-3.823 4.017-23.394 13.311-33.235 3.578-3.794 9.568-3.992 13.4-.427a9.36 9.36 0 0 1 .43 13.3c-3.933 4.168-7.285 16.094-8.405 23.23-.8 5.077-5.571 8.64-10.817 7.855ZM14.085 175.594c-1.815-6.997-6.323-18.538-10.65-22.305-3.939-3.428-4.332-9.373-.88-13.277 3.444-3.914 9.428-4.314 13.376-.873 10.215 8.889 15.552 28.034 16.52 31.778 1.295 5.031-1.759 10.148-6.823 11.444-5.175 1.292-10.253-1.82-11.543-6.767Z" fill="#3D3D3D"/></svg>
